X: 22008
T: Kitty's Rambles
R: jig
M: 6/8
K: Dmajor
|:fed cBA|~d3 efg|fed cBA|FAF GEA|
~D3 ~d3|~d3 efg|fed cBG|Adc d2:|
|:A|dfa dfa|dfa ~a3|Ace Ace|Ace gfe|
def ~g3|~a3 ~g3|fed cBG|Adc d2:|

